assets/svg/questions.svg

<svg fill="none" height="17" viewBox="0 0 17 17" width="17" xmlns="http://www.w3.org/2000/svg"><g fill="#102b44"><path d="m8.27024 11.0552c-.42887 0-.7761.3574-.7761.7863 0 .4187.337.7863.7761.7863.43911 0 .78633-.3676.78633-.7863 0-.4289-.35739-.7863-.78633-.7863z" stroke="#102b44" stroke-width=".3"/><path d="m8.40299 5.10156c-1.37862 0-2.01175.81695-2.01175 1.3684 0 .39829.33697.5821.61271.5821.55143 0 .32678-.78633 1.3684-.78633.51061 0 .9191.22468.9191.69443 0 .55148-.57187.86803-.90888 1.15397-.29613.25529-.6842.674-.6842 1.55224 0 .53103.14294.68423.56165.68423.5004 0 .60249-.2247.60249-.41872 0-.53103.01026-.83739.57191-1.27649.27571-.21445 1.14378-.90888 1.14378-1.86882s-.86807-1.68501-2.17521-1.68501z" stroke="#102b44" stroke-width=".3"/><path clip-rule="evenodd" d="m1 8.5c0-4.1456 3.35496-7.5 7.5-7.5 4.1456 0 7.5 3.35496 7.5 7.5 0 4.1456-3.355 7.5-7.5 7.5h-6.91406c-.32362 0-.58594-.2623-.58594-.5859zm1.17188 6.3281h6.32812c3.4978 0 6.3281-2.8307 6.3281-6.3281 0-3.49784-2.8307-6.32812-6.3281-6.32812-3.49784 0-6.32812 2.83075-6.32812 6.32812z" fill-rule="evenodd"/><path d="m2.17188 14.8281h-.15v.15h.15zm6.32812-13.9781c-4.22787 0-7.65 3.42155-7.65 7.65h.3c0-4.06275 3.2878-7.35 7.35-7.35zm7.65 7.65c0-4.22787-3.4216-7.65-7.65-7.65v.3c4.0627 0 7.35 3.2878 7.35 7.35zm-7.65 7.65c4.2278 0 7.65-3.4216 7.65-7.65h-.3c0 4.0627-3.2878 7.35-7.35 7.35zm-6.91406 0h6.91406v-.3h-6.91406zm-.73594-.7359c0 .4064.32948.7359.73594.7359v-.3c-.24077 0-.43594-.1952-.43594-.4359zm0-6.9141v6.9141h.3v-6.9141zm7.65 6.1781h-6.32812v.3h6.32812zm6.1781-6.1781c0 3.4145-2.7631 6.1781-6.1781 6.1781v.3c3.5807 0 6.4781-2.8979 6.4781-6.4781zm-6.1781-6.17813c3.4145 0 6.1781 2.76314 6.1781 6.17813h.3c0-3.58069-2.8979-6.47812-6.4781-6.47812zm-6.17813 6.17813c0-3.41454 2.76314-6.17813 6.17813-6.17813v-.29999c-3.58069 0-6.47812 2.89791-6.47812 6.47812zm0 6.3281v-6.3281h-.29999v6.3281z"/></g></svg>

<svg width="17" height="17" viewBox="0 0 17 17" fill="none" xmlns="http://www.w3.org/2000/svg">
<path d="M8.27024 11.0552C7.84137 11.0552 7.49414 11.4126 7.49414 11.8415C7.49414 12.2602 7.83114 12.6278 8.27024 12.6278C8.70935 12.6278 9.05657 12.2602 9.05657 11.8415C9.05657 11.4126 8.69918 11.0552 8.27024 11.0552Z" fill="#102B44" stroke="#102B44" stroke-width="0.3"/>
<path d="M8.40299 5.10156C7.02437 5.10156 6.39124 5.91851 6.39124 6.46996C6.39124 6.86825 6.72821 7.05206 7.00395 7.05206C7.55538 7.05206 7.33073 6.26573 8.37235 6.26573C8.88296 6.26573 9.29145 6.49041 9.29145 6.96016C9.29145 7.51164 8.71958 7.82819 8.38257 8.11413C8.08644 8.36942 7.69837 8.78813 7.69837 9.66637C7.69837 10.1974 7.84131 10.3506 8.26002 10.3506C8.76042 10.3506 8.86251 10.1259 8.86251 9.93188C8.86251 9.40085 8.87277 9.09449 9.43442 8.65539C9.71013 8.44094 10.5782 7.74651 10.5782 6.78657C10.5782 5.82663 9.71013 5.10156 8.40299 5.10156Z" fill="#102B44" stroke="#102B44" stroke-width="0.3"/>
<path fill-rule="evenodd" clip-rule="evenodd" d="M1 8.5C1 4.3544 4.35496 1 8.5 1C12.6456 1 16 4.35496 16 8.5C16 12.6456 12.645 16 8.5 16H1.58594C1.26232 16 1 15.7377 1 15.4141V8.5ZM2.17188 14.8281H8.5C11.9978 14.8281 14.8281 11.9974 14.8281 8.5C14.8281 5.00216 11.9974 2.17188 8.5 2.17188C5.00216 2.17188 2.17188 5.00263 2.17188 8.5V14.8281Z" fill="#102B44"/>
<path d="M2.17188 14.8281H2.02188V14.9781H2.17188V14.8281ZM8.5 0.85C4.27213 0.85 0.85 4.27155 0.85 8.5H1.15C1.15 4.43725 4.4378 1.15 8.5 1.15V0.85ZM16.15 8.5C16.15 4.27213 12.7284 0.85 8.5 0.85V1.15C12.5627 1.15 15.85 4.4378 15.85 8.5H16.15ZM8.5 16.15C12.7278 16.15 16.15 12.7284 16.15 8.5H15.85C15.85 12.5627 12.5622 15.85 8.5 15.85V16.15ZM1.58594 16.15H8.5V15.85H1.58594V16.15ZM0.85 15.4141C0.85 15.8205 1.17948 16.15 1.58594 16.15V15.85C1.34517 15.85 1.15 15.6548 1.15 15.4141H0.85ZM0.85 8.5V15.4141H1.15V8.5H0.85ZM8.5 14.6781H2.17188V14.9781H8.5V14.6781ZM14.6781 8.5C14.6781 11.9145 11.915 14.6781 8.5 14.6781V14.9781C12.0807 14.9781 14.9781 12.0802 14.9781 8.5H14.6781ZM8.5 2.32187C11.9145 2.32187 14.6781 5.08501 14.6781 8.5H14.9781C14.9781 4.91931 12.0802 2.02188 8.5 2.02188V2.32187ZM2.32187 8.5C2.32187 5.08546 5.08501 2.32187 8.5 2.32187V2.02188C4.91931 2.02188 2.02188 4.91979 2.02188 8.5H2.32187ZM2.32187 14.8281V8.5H2.02188V14.8281H2.32187Z" fill="#102B44"/>
</svg>
